(.../pcb-gcode-3.6.2.4/pcb-gcode.ulp)
(Copyright 2005 - 2012 by John Johnson)
(See readme.txt for licensing terms.)
(This file generated from the board:)
(.../mag_encoder_Rev3_single_sided.brd)
(Current profile is .../pcb-gcode-3.6.2.4/profiles/emc.pp  )
(This file generated 1/11/16 3:36 PM)
(Settings from pcb-machine.h)
(spindle on time = 3.0000)
(  Tool Size)
(0.1778 )
(spindle speed = 30000.0000)
(tool change at 0.0000 0.0000 25.4000 )
(feed rate xy = F508.00 )
(feed rate z  = F254.00 )
(Z Axis Settings)
(  High     Up        Down     Drill)
(12.7000 	2.5400 	-0.1778 	-0.8128 )
(Settings from pcb-defaults.h)
(isolate min = 0.0254)
(isolate max = 0.5080)
(isolate step = 0.1270)
(Generated top outlines, top drill, )
(Unit of measure: mm)
(Metric Mode)
G21
(Absolute Coordinates)
G90
S30000
G00 Z12.7000 
G00 X0.0000 Y0.0000 
M03
G04 P3.000000
G00 Z2.5400 
G00 X8.0551 Y2.7503 
G01 Z-0.1778 F254.00 
G01 X8.0377 Y2.7923 F508.00 
G01 X8.0377 Y3.7266 
G01 X7.4045 Y4.3599 
G01 X7.3476 Y4.4583 
G01 X7.3182 Y4.5682 
G01 X7.3182 Y8.6757 
G01 X7.1443 Y8.6757 
G01 X7.1023 Y8.6931 
G01 X7.0701 Y8.7253 
G01 X7.0527 Y8.7673 
G01 X7.0527 Y9.0682 
G01 X6.6932 Y9.0682 
G01 X6.5833 Y9.0976 
G01 X6.4849 Y9.1545 
G01 X5.2795 Y10.3599 
G01 X5.2226 Y10.4583 
G01 X5.1932 Y10.5681 
G01 X5.1932 Y23.0568 
G01 X5.2226 Y23.1667 
G01 X5.2795 Y23.2651 
G01 X6.0295 Y24.0151 
G01 X6.1099 Y24.0955 
G01 X6.2083 Y24.1524 
G01 X6.3182 Y24.1818 
G01 X8.4318 Y24.1818 
G01 X8.5417 Y24.1524 
G01 X8.6401 Y24.0955 
G01 X9.9219 Y22.8138 
G01 X10.4162 Y22.8138 
G01 X10.4582 Y22.7964 
G01 X10.4904 Y22.7642 
G01 X10.5078 Y22.7222 
G01 X10.5078 Y21.4768 
G01 X10.4904 Y21.4348 
G01 X10.4582 Y21.4026 
G01 X10.4162 Y21.3852 
G01 X9.8068 Y21.3852 
G01 X9.8068 Y16.2443 
G01 X9.8247 Y16.2443 
G01 X9.8667 Y16.2269 
G01 X9.8989 Y16.1947 
G01 X9.9163 Y16.1527 
G01 X9.9163 Y15.1073 
G01 X9.8989 Y15.0653 
G01 X9.8667 Y15.0331 
G01 X9.8247 Y15.0157 
G01 X8.6793 Y15.0157 
G01 X8.6373 Y15.0331 
G01 X8.6051 Y15.0653 
G01 X8.5877 Y15.1073 
G01 X8.5877 Y16.1527 
G01 X8.6051 Y16.1947 
G01 X8.6373 Y16.2269 
G01 X8.6793 Y16.2443 
G01 X8.9432 Y16.2443 
G01 X8.9432 Y21.6818 
G01 X8.9726 Y21.7917 
G01 X9.0295 Y21.8901 
G01 X9.0792 Y21.9399 
G01 X9.0792 Y22.4351 
G01 X8.1961 Y23.3182 
G01 X6.5539 Y23.3182 
G01 X6.0568 Y22.8211 
G01 X6.0568 Y10.8039 
G01 X6.9289 Y9.9318 
G01 X7.0606 Y9.9318 
G01 X7.0701 Y9.9547 
G01 X7.1023 Y9.9869 
G01 X7.1443 Y10.0043 
G01 X8.1897 Y10.0043 
G01 X8.2317 Y9.9869 
G01 X8.2639 Y9.9547 
G01 X8.2813 Y9.9127 
G01 X8.2813 Y8.7673 
G01 X8.2639 Y8.7253 
G01 X8.2317 Y8.6931 
G01 X8.1897 Y8.6757 
G01 X8.1818 Y8.6757 
G01 X8.1818 Y4.8039 
G01 X8.6564 Y4.3293 
G01 X9.3747 Y4.3293 
G01 X9.4167 Y4.3119 
G01 X9.4489 Y4.2797 
G01 X9.4663 Y4.2377 
G01 X9.4663 Y2.7923 
G01 X9.4489 Y2.7503 
G01 X9.4167 Y2.7181 
G01 X9.3747 Y2.7007 
G01 X8.1293 Y2.7007 
G01 X8.0873 Y2.7181 
G01 X8.0551 Y2.7503 
G00 Z2.5400 
G00 X10.2551 Y2.7503 
G01 Z-0.1778 F254.00 
G01 X10.2377 Y2.7923 F508.00 
G01 X10.2377 Y4.2377 
G01 X10.2551 Y4.2797 
G01 X10.2873 Y4.3119 
G01 X10.3293 Y4.3293 
G01 X11.0936 Y4.3293 
G01 X11.9432 Y5.1789 
G01 X11.9432 Y8.6757 
G01 X11.8893 Y8.6757 
G01 X11.8473 Y8.6931 
G01 X11.8151 Y8.7253 
G01 X11.7977 Y8.7673 
G01 X11.7977 Y9.9127 
G01 X11.8151 Y9.9547 
G01 X11.8473 Y9.9869 
G01 X11.8893 Y10.0043 
G01 X12.9347 Y10.0043 
G01 X12.9767 Y9.9869 
G01 X13.0089 Y9.9547 
G01 X13.0184 Y9.9318 
G01 X13.1961 Y9.9318 
G01 X13.4432 Y10.1789 
G01 X13.4432 Y12.4461 
G01 X10.8736 Y15.0157 
G01 X10.3793 Y15.0157 
G01 X10.3373 Y15.0331 
G01 X10.3051 Y15.0653 
G01 X10.2877 Y15.1073 
G01 X10.2877 Y16.1527 
G01 X10.3051 Y16.1947 
G01 X10.3373 Y16.2269 
G01 X10.3793 Y16.2443 
G01 X10.5682 Y16.2443 
G01 X10.5682 Y20.8068 
G01 X10.5976 Y20.9167 
G01 X10.6545 Y21.0151 
G01 X11.5792 Y21.9399 
G01 X11.5792 Y22.7222 
G01 X11.5966 Y22.7642 
G01 X11.6288 Y22.7964 
G01 X11.6708 Y22.8138 
G01 X12.9162 Y22.8138 
G01 X12.9582 Y22.7964 
G01 X12.9904 Y22.7642 
G01 X13.0078 Y22.7222 
G01 X13.0078 Y21.4768 
G01 X12.9904 Y21.4348 
G01 X12.9582 Y21.4026 
G01 X12.9162 Y21.3852 
G01 X12.2459 Y21.3852 
G01 X11.4318 Y20.5711 
G01 X11.4318 Y16.2443 
G01 X11.5247 Y16.2443 
G01 X11.5667 Y16.2269 
G01 X11.5989 Y16.1947 
G01 X11.6163 Y16.1527 
G01 X11.6163 Y15.4944 
G01 X14.2205 Y12.8901 
G01 X14.2774 Y12.7917 
G01 X14.3068 Y12.6818 
G01 X14.3068 Y9.9431 
G01 X14.2774 Y9.8333 
G01 X14.2205 Y9.7349 
G01 X14.1401 Y9.6545 
G01 X13.6401 Y9.1545 
G01 X13.5417 Y9.0976 
G01 X13.4318 Y9.0682 
G01 X13.0263 Y9.0682 
G01 X13.0263 Y8.7673 
G01 X13.0089 Y8.7253 
G01 X12.9767 Y8.6931 
G01 X12.9347 Y8.6757 
G01 X12.8068 Y8.6757 
G01 X12.8068 Y4.9432 
G01 X12.7774 Y4.8333 
G01 X12.7205 Y4.7349 
G01 X11.6663 Y3.6806 
G01 X11.6663 Y2.7923 
G01 X11.6489 Y2.7503 
G01 X11.6167 Y2.7181 
G01 X11.5747 Y2.7007 
G01 X10.3293 Y2.7007 
G01 X10.2873 Y2.7181 
G01 X10.2551 Y2.7503 
G00 Z2.5400 
G00 X10.2484 Y4.7357 
G01 Z-0.1778 F254.00 
G01 X10.0571 Y4.6564 F508.00 
G01 X10.0470 Y4.6463 
G01 X10.0412 Y4.6430 
G01 X9.9746 Y4.6045 
G01 X9.9420 Y4.5958 
G01 X9.8938 Y4.5829 
G01 X9.8516 Y4.5829 
G01 X9.8102 Y4.5829 
G01 X9.7786 Y4.5913 
G01 X9.7295 Y4.6045 
G01 X9.7076 Y4.6172 
G01 X9.6571 Y4.6463 
G01 X9.6470 Y4.6564 
G01 X9.4556 Y4.7357 
G01 X8.9144 Y4.7357 
G01 X8.8337 Y4.7573 
G01 X8.7613 Y4.7991 
G01 X8.6516 Y4.9088 
G01 X8.6098 Y4.9812 
G01 X8.5882 Y5.0619 
G01 X8.5882 Y8.3622 
G01 X8.5855 Y8.3831 
G01 X8.5882 Y8.4039 
G01 X8.5882 Y8.4249 
G01 X8.5936 Y8.4451 
G01 X8.5964 Y8.4659 
G01 X8.6044 Y8.4853 
G01 X8.6098 Y8.5056 
G01 X8.6203 Y8.5238 
G01 X8.6877 Y8.6864 
G01 X8.6877 Y9.9936 
G01 X8.6084 Y10.1850 
G01 X8.4620 Y10.3314 
G01 X8.2706 Y10.4107 
G01 X8.2493 Y10.4107 
G01 X8.2317 Y10.3931 
G01 X8.1897 Y10.3757 
G01 X7.1443 Y10.3757 
G01 X7.1023 Y10.3931 
G01 X7.0738 Y10.4216 
G01 X7.0336 Y10.4323 
G01 X6.9613 Y10.4741 
G01 X6.5857 Y10.8496 
G01 X6.5266 Y10.9088 
G01 X6.4848 Y10.9811 
G01 X6.4632 Y11.0619 
G01 X6.4632 Y22.5631 
G01 X6.4848 Y22.6438 
G01 X6.5266 Y22.7162 
G01 X6.5996 Y22.7892 
G01 X6.6588 Y22.8484 
G01 X6.7312 Y22.8902 
G01 X6.8119 Y22.9118 
G01 X7.9381 Y22.9118 
G01 X8.0188 Y22.8902 
G01 X8.0448 Y22.8752 
G01 X8.0912 Y22.8484 
G01 X8.5511 Y22.3885 
G01 X8.5677 Y22.3758 
G01 X8.5805 Y22.3591 
G01 X8.5953 Y22.3443 
G01 X8.6058 Y22.3261 
G01 X8.6186 Y22.3094 
G01 X8.6266 Y22.2901 
G01 X8.6371 Y22.2719 
G01 X8.6426 Y22.2516 
G01 X8.6506 Y22.2322 
G01 X8.6533 Y22.2114 
G01 X8.6588 Y22.1911 
G01 X8.6588 Y22.1701 
G01 X8.6615 Y22.1493 
G01 X8.6588 Y22.1285 
G01 X8.6588 Y22.1075 
G01 X8.6533 Y22.0873 
G01 X8.6506 Y22.0664 
G01 X8.6426 Y22.0470 
G01 X8.6371 Y22.0268 
G01 X8.6266 Y22.0086 
G01 X8.5368 Y21.7917 
G01 X8.5368 Y16.7909 
G01 X8.5152 Y16.7101 
G01 X8.4734 Y16.6377 
G01 X8.2606 Y16.4250 
G01 X8.1813 Y16.2336 
G01 X8.1813 Y15.0264 
G01 X8.2606 Y14.8350 
G01 X8.4070 Y14.6886 
G01 X8.5984 Y14.6093 
G01 X9.9056 Y14.6093 
G01 X10.0191 Y14.6563 
G01 X10.1020 Y14.6672 
G01 X10.1849 Y14.6563 
G01 X10.2310 Y14.6372 
G01 X10.2621 Y14.6243 
G01 X10.2984 Y14.6093 
G01 X10.6156 Y14.6093 
G01 X10.6963 Y14.5877 
G01 X10.7687 Y14.5459 
G01 X12.9142 Y12.4003 
G01 X12.9734 Y12.3412 
G01 X13.0152 Y12.2688 
G01 X13.0368 Y12.1881 
G01 X13.0368 Y10.6864 
G01 X13.0263 Y10.6472 
G01 X13.0263 Y10.4673 
G01 X13.0089 Y10.4253 
G01 X12.9767 Y10.3931 
G01 X12.9347 Y10.3757 
G01 X11.8893 Y10.3757 
G01 X11.8473 Y10.3931 
G01 X11.8297 Y10.4107 
G01 X11.8084 Y10.4107 
G01 X11.6170 Y10.3314 
G01 X11.4706 Y10.1850 
G01 X11.3913 Y9.9936 
G01 X11.3913 Y8.6864 
G01 X11.4706 Y8.4950 
G01 X11.4734 Y8.4923 
G01 X11.5152 Y8.4199 
G01 X11.5368 Y8.3391 
G01 X11.5368 Y5.4369 
G01 X11.5152 Y5.3562 
G01 X11.5002 Y5.3302 
G01 X11.4734 Y5.2838 
G01 X10.9887 Y4.7991 
G01 X10.9179 Y4.7583 
G01 X10.8356 Y4.7357 
G01 X10.2484 Y4.7357 
G00 Z2.5400 
G00 X7.9474 Y2.6783 
G01 Z-0.1778 F254.00 
G01 X7.9107 Y2.7670 F508.00 
G01 X7.9107 Y3.6740 
G01 X7.3028 Y4.2819 
G01 X7.2293 Y4.4093 
G01 X7.1912 Y4.5514 
G01 X7.1912 Y8.5487 
G01 X7.1190 Y8.5487 
G01 X7.0303 Y8.5854 
G01 X6.9624 Y8.6533 
G01 X6.9257 Y8.7420 
G01 X6.9257 Y8.9412 
G01 X6.6764 Y8.9412 
G01 X6.5343 Y8.9793 
G01 X6.4069 Y9.0528 
G01 X5.1778 Y10.2819 
G01 X5.1043 Y10.4093 
G01 X5.0662 Y10.5514 
G01 X5.0662 Y23.0736 
G01 X5.1043 Y23.2157 
G01 X5.1778 Y23.3431 
G01 X5.9278 Y24.0931 
G01 X6.0319 Y24.1972 
G01 X6.1593 Y24.2707 
G01 X6.3014 Y24.3088 
G01 X8.4486 Y24.3088 
G01 X8.5907 Y24.2707 
G01 X8.7181 Y24.1972 
G01 X9.9745 Y22.9408 
G01 X10.4415 Y22.9408 
G01 X10.5302 Y22.9041 
G01 X10.5981 Y22.8362 
G01 X10.6348 Y22.7475 
G01 X10.6348 Y21.4515 
G01 X10.5981 Y21.3628 
G01 X10.5302 Y21.2949 
G01 X10.4415 Y21.2582 
G01 X9.9338 Y21.2582 
G01 X9.9338 Y16.3366 
G01 X9.9387 Y16.3346 
G01 X10.0066 Y16.2667 
G01 X10.0433 Y16.1780 
G01 X10.0433 Y15.0820 
G01 X10.0066 Y14.9933 
G01 X9.9387 Y14.9254 
G01 X9.8500 Y14.8887 
G01 X8.6540 Y14.8887 
G01 X8.5653 Y14.9254 
G01 X8.4974 Y14.9933 
G01 X8.4607 Y15.0820 
G01 X8.4607 Y16.1780 
G01 X8.4974 Y16.2667 
G01 X8.5653 Y16.3346 
G01 X8.6540 Y16.3713 
G01 X8.8162 Y16.3713 
G01 X8.8162 Y21.6986 
G01 X8.8543 Y21.8407 
G01 X8.9278 Y21.9681 
G01 X8.9522 Y21.9925 
G01 X8.9522 Y22.3825 
G01 X8.1435 Y23.1912 
G01 X6.6065 Y23.1912 
G01 X6.1838 Y22.7685 
G01 X6.1838 Y10.8565 
G01 X6.9815 Y10.0588 
G01 X6.9946 Y10.0588 
G01 X7.0303 Y10.0946 
G01 X7.1190 Y10.1313 
G01 X8.2150 Y10.1313 
G01 X8.3037 Y10.0946 
G01 X8.3716 Y10.0267 
G01 X8.4083 Y9.9380 
G01 X8.4083 Y8.7420 
G01 X8.3716 Y8.6533 
G01 X8.3088 Y8.5906 
G01 X8.3088 Y4.8565 
G01 X8.7090 Y4.4563 
G01 X9.4000 Y4.4563 
G01 X9.4887 Y4.4196 
G01 X9.5566 Y4.3517 
G01 X9.5933 Y4.2630 
G01 X9.5933 Y2.7670 
G01 X9.5566 Y2.6783 
G01 X9.4887 Y2.6104 
G01 X9.4000 Y2.5737 
G01 X8.1040 Y2.5737 
G01 X8.0153 Y2.6104 
G01 X7.9474 Y2.6783 
G00 Z2.5400 
G00 X10.1474 Y2.6783 
G01 Z-0.1778 F254.00 
G01 X10.1107 Y2.7670 F508.00 
G01 X10.1107 Y4.2630 
G01 X10.1474 Y4.3517 
G01 X10.2153 Y4.4196 
G01 X10.3040 Y4.4563 
G01 X11.0410 Y4.4563 
G01 X11.8162 Y5.2315 
G01 X11.8162 Y8.5685 
G01 X11.7753 Y8.5854 
G01 X11.7074 Y8.6533 
G01 X11.6707 Y8.7420 
G01 X11.6707 Y9.9380 
G01 X11.7074 Y10.0267 
G01 X11.7753 Y10.0946 
G01 X11.8640 Y10.1313 
G01 X12.9600 Y10.1313 
G01 X13.0487 Y10.0946 
G01 X13.0844 Y10.0588 
G01 X13.1435 Y10.0588 
G01 X13.3162 Y10.2315 
G01 X13.3162 Y12.3935 
G01 X10.8210 Y14.8887 
G01 X10.3540 Y14.8887 
G01 X10.2653 Y14.9254 
G01 X10.1974 Y14.9933 
G01 X10.1607 Y15.0820 
G01 X10.1607 Y16.1780 
G01 X10.1974 Y16.2667 
G01 X10.2653 Y16.3346 
G01 X10.3540 Y16.3713 
G01 X10.4412 Y16.3713 
G01 X10.4412 Y20.8236 
G01 X10.4793 Y20.9657 
G01 X10.5528 Y21.0931 
G01 X11.4522 Y21.9925 
G01 X11.4522 Y22.7475 
G01 X11.4889 Y22.8362 
G01 X11.5568 Y22.9041 
G01 X11.6455 Y22.9408 
G01 X12.9415 Y22.9408 
G01 X13.0302 Y22.9041 
G01 X13.0981 Y22.8362 
G01 X13.1348 Y22.7475 
G01 X13.1348 Y21.4515 
G01 X13.0981 Y21.3628 
G01 X13.0302 Y21.2949 
G01 X12.9415 Y21.2582 
G01 X12.2985 Y21.2582 
G01 X11.5588 Y20.5185 
G01 X11.5588 Y16.3677 
G01 X11.6387 Y16.3346 
G01 X11.7066 Y16.2667 
G01 X11.7433 Y16.1780 
G01 X11.7433 Y15.5470 
G01 X14.3222 Y12.9681 
G01 X14.3957 Y12.8407 
G01 X14.4338 Y12.6986 
G01 X14.4338 Y9.9264 
G01 X14.3957 Y9.7843 
G01 X14.3222 Y9.6569 
G01 X14.2181 Y9.5528 
G01 X13.7181 Y9.0528 
G01 X13.5907 Y8.9793 
G01 X13.4486 Y8.9412 
G01 X13.1533 Y8.9412 
G01 X13.1533 Y8.7420 
G01 X13.1166 Y8.6533 
G01 X13.0487 Y8.5854 
G01 X12.9600 Y8.5487 
G01 X12.9338 Y8.5487 
G01 X12.9338 Y4.9264 
G01 X12.8957 Y4.7843 
G01 X12.8222 Y4.6569 
G01 X11.7933 Y3.6280 
G01 X11.7933 Y2.7670 
G01 X11.7566 Y2.6783 
G01 X11.6887 Y2.6104 
G01 X11.6000 Y2.5737 
G01 X10.3040 Y2.5737 
G01 X10.2153 Y2.6104 
G01 X10.1474 Y2.6783 
G00 Z2.5400 
G00 X10.1250 Y4.5447 
G01 Z-0.1778 F254.00 
G01 X10.1249 Y4.5447 F508.00 
G01 X10.0474 Y4.5000 
G01 X10.0236 Y4.4862 
G01 X9.9590 Y4.4689 
G01 X9.9105 Y4.4559 
G01 X9.8514 Y4.4559 
G01 X9.7935 Y4.4559 
G01 X9.7226 Y4.4749 
G01 X9.6805 Y4.4862 
G01 X9.6163 Y4.5232 
G01 X9.5791 Y4.5447 
G01 X9.5750 Y4.5488 
G01 X9.4303 Y4.6087 
G01 X8.8977 Y4.6087 
G01 X8.7846 Y4.6390 
G01 X8.6833 Y4.6975 
G01 X8.5500 Y4.8308 
G01 X8.4915 Y4.9321 
G01 X8.4612 Y5.0452 
G01 X8.4612 Y8.3539 
G01 X8.4574 Y8.3831 
G01 X8.4612 Y8.4122 
G01 X8.4612 Y8.4416 
G01 X8.4688 Y8.4700 
G01 X8.4726 Y8.4991 
G01 X8.4839 Y8.5262 
G01 X8.4915 Y8.5546 
G01 X8.5062 Y8.5801 
G01 X8.5607 Y8.7117 
G01 X8.5607 Y9.9683 
G01 X8.5008 Y10.1130 
G01 X8.3900 Y10.2238 
G01 X8.2724 Y10.2725 
G01 X8.2150 Y10.2487 
G01 X7.1190 Y10.2487 
G01 X7.0303 Y10.2854 
G01 X7.0080 Y10.3077 
G01 X6.9846 Y10.3140 
G01 X6.8833 Y10.3725 
G01 X6.5078 Y10.7480 
G01 X6.4250 Y10.8308 
G01 X6.3665 Y10.9321 
G01 X6.3362 Y11.0452 
G01 X6.3362 Y22.5798 
G01 X6.3665 Y22.6929 
G01 X6.4250 Y22.7942 
G01 X6.4980 Y22.8672 
G01 X6.5808 Y22.9500 
G01 X6.6821 Y23.0085 
G01 X6.7952 Y23.0388 
G01 X7.9548 Y23.0388 
G01 X8.0679 Y23.0085 
G01 X8.1692 Y22.9500 
G01 X8.2520 Y22.8672 
G01 X8.6350 Y22.4842 
G01 X8.6583 Y22.4663 
G01 X8.6762 Y22.4430 
G01 X8.6969 Y22.4223 
G01 X8.7116 Y22.3968 
G01 X8.7295 Y22.3735 
G01 X8.7408 Y22.3463 
G01 X8.7555 Y22.3209 
G01 X8.7631 Y22.2925 
G01 X8.7743 Y22.2654 
G01 X8.7782 Y22.2362 
G01 X8.7858 Y22.2079 
G01 X8.7858 Y22.1785 
G01 X8.7896 Y22.1493 
G01 X8.7858 Y22.1202 
G01 X8.7858 Y22.0908 
G01 X8.7782 Y22.0624 
G01 X8.7743 Y22.0333 
G01 X8.7631 Y22.0061 
G01 X8.7555 Y21.9778 
G01 X8.7408 Y21.9523 
G01 X8.6638 Y21.7665 
G01 X8.6638 Y16.7742 
G01 X8.6335 Y16.6611 
G01 X8.5750 Y16.5598 
G01 X8.3682 Y16.3530 
G01 X8.3083 Y16.2083 
G01 X8.3083 Y15.0517 
G01 X8.3682 Y14.9070 
G01 X8.4790 Y14.7962 
G01 X8.6237 Y14.7363 
G01 X9.8803 Y14.7363 
G01 X9.9104 Y14.7488 
G01 X9.9860 Y14.7801 
G01 X10.1020 Y14.7953 
G01 X10.2180 Y14.7801 
G01 X10.2786 Y14.7550 
G01 X10.3237 Y14.7363 
G01 X10.6323 Y14.7363 
G01 X10.7454 Y14.7060 
G01 X10.8467 Y14.6475 
G01 X12.9922 Y12.5020 
G01 X13.0750 Y12.4192 
G01 X13.1335 Y12.3179 
G01 X13.1638 Y12.2048 
G01 X13.1638 Y10.6697 
G01 X13.1533 Y10.6305 
G01 X13.1533 Y10.4420 
G01 X13.1166 Y10.3533 
G01 X13.0487 Y10.2854 
G01 X12.9600 Y10.2487 
G01 X11.8640 Y10.2487 
G01 X11.8066 Y10.2725 
G01 X11.6890 Y10.2238 
G01 X11.5782 Y10.1130 
G01 X11.5183 Y9.9683 
G01 X11.5183 Y8.7117 
G01 X11.5817 Y8.5586 
G01 X11.6335 Y8.4689 
G01 X11.6638 Y8.3558 
G01 X11.6638 Y5.4202 
G01 X11.6335 Y5.3071 
G01 X11.5750 Y5.2058 
G01 X11.4922 Y5.1230 
G01 X11.1495 Y4.7803 
G01 X11.0667 Y4.6975 
G01 X10.9654 Y4.6390 
G01 X10.8813 Y4.6165 
G01 X10.8523 Y4.6087 
G01 X10.2737 Y4.6087 
G01 X10.1290 Y4.5488 
G01 X10.1250 Y4.5447 
G00 Z2.5400 
G00 X7.8573 Y2.5889 
G01 Z-0.1778 F254.00 
G01 X7.8088 Y2.6728 F508.00 
G01 X7.7837 Y2.7665 
G01 X7.7837 Y3.6214 
G01 X7.2173 Y4.1878 
G01 X7.1423 Y4.3002 
G01 X7.0906 Y4.4250 
G01 X7.0642 Y4.5575 
G01 X7.0642 Y8.4363 
G01 X7.0248 Y8.4468 
G01 X6.9409 Y8.4953 
G01 X6.8723 Y8.5639 
G01 X6.8238 Y8.6478 
G01 X6.7987 Y8.7415 
G01 X6.7987 Y8.8142 
G01 X6.6825 Y8.8142 
G01 X6.5500 Y8.8406 
G01 X6.4252 Y8.8923 
G01 X6.3128 Y8.9673 
G01 X5.0923 Y10.1878 
G01 X5.0173 Y10.3002 
G01 X4.9656 Y10.4250 
G01 X4.9392 Y10.5575 
G01 X4.9392 Y23.0675 
G01 X4.9656 Y23.2000 
G01 X5.0173 Y23.3248 
G01 X5.0923 Y23.4372 
G01 X5.8423 Y24.1872 
G01 X5.9378 Y24.2827 
G01 X6.0502 Y24.3577 
G01 X6.1750 Y24.4094 
G01 X6.3075 Y24.4358 
G01 X8.3075 Y24.4358 
G01 X8.4425 Y24.4358 
G01 X8.5750 Y24.4094 
G01 X8.6998 Y24.3577 
G01 X8.8122 Y24.2827 
G01 X10.0271 Y23.0678 
G01 X10.4420 Y23.0678 
G01 X10.5357 Y23.0427 
G01 X10.6196 Y22.9942 
G01 X10.6882 Y22.9256 
G01 X10.7367 Y22.8417 
G01 X10.7618 Y22.7480 
G01 X10.7618 Y21.4817 
G01 X11.3252 Y22.0451 
G01 X11.3252 Y22.7480 
G01 X11.3503 Y22.8417 
G01 X11.3988 Y22.9256 
G01 X11.4674 Y22.9942 
G01 X11.5513 Y23.0427 
G01 X11.6450 Y23.0678 
G01 X12.9420 Y23.0678 
G01 X13.0357 Y23.0427 
G01 X13.1196 Y22.9942 
G01 X13.1882 Y22.9256 
G01 X13.2367 Y22.8417 
G01 X13.2618 Y22.7480 
G01 X13.2618 Y21.4510 
G01 X13.2367 Y21.3573 
G01 X13.1882 Y21.2734 
G01 X13.1196 Y21.2048 
G01 X13.0357 Y21.1563 
G01 X12.9420 Y21.1312 
G01 X12.3511 Y21.1312 
G01 X11.6858 Y20.4659 
G01 X11.6858 Y16.4492 
G01 X11.7281 Y16.4247 
G01 X11.7967 Y16.3561 
G01 X11.8452 Y16.2722 
G01 X11.8703 Y16.1785 
G01 X11.8703 Y15.5996 
G01 X14.4077 Y13.0622 
G01 X14.4827 Y12.9498 
G01 X14.5344 Y12.8250 
G01 X14.5608 Y12.6925 
G01 X14.5608 Y9.9325 
G01 X14.5344 Y9.8000 
G01 X14.4827 Y9.6752 
G01 X14.4077 Y9.5628 
G01 X14.3122 Y9.4673 
G01 X13.8122 Y8.9673 
G01 X13.6998 Y8.8923 
G01 X13.5750 Y8.8406 
G01 X13.4425 Y8.8142 
G01 X13.2803 Y8.8142 
G01 X13.2803 Y8.7415 
G01 X13.2552 Y8.6478 
G01 X13.2067 Y8.5639 
G01 X13.1381 Y8.4953 
G01 X13.0608 Y8.4506 
G01 X13.0608 Y4.9325 
G01 X13.0344 Y4.8000 
G01 X12.9827 Y4.6752 
G01 X12.9077 Y4.5628 
G01 X11.9203 Y3.5754 
G01 X11.9203 Y2.7665 
G01 X11.8952 Y2.6728 
G01 X11.8467 Y2.5889 
G01 X11.7781 Y2.5203 
G01 X11.6942 Y2.4718 
G01 X11.6005 Y2.4467 
G01 X10.3035 Y2.4467 
G01 X10.2098 Y2.4718 
G01 X10.1259 Y2.5203 
G01 X10.0573 Y2.5889 
G01 X10.0088 Y2.6728 
G01 X9.9837 Y2.7665 
G01 X9.9837 Y4.2635 
G01 X10.0069 Y4.3502 
G01 X9.9273 Y4.3289 
G01 X9.8512 Y4.3289 
G01 X9.7768 Y4.3289 
G01 X9.6970 Y4.3502 
G01 X9.7203 Y4.2635 
G01 X9.7203 Y2.7665 
G01 X9.6952 Y2.6728 
G01 X9.6467 Y2.5889 
G01 X9.5781 Y2.5203 
G01 X9.4942 Y2.4718 
G01 X9.4005 Y2.4467 
G01 X8.1035 Y2.4467 
G01 X8.0098 Y2.4718 
G01 X7.9259 Y2.5203 
G01 X7.8573 Y2.5889 
G00 Z2.5400 
G00 X8.6861 Y16.4983 
G01 Z-0.1778 F254.00 
G01 X8.6892 Y16.4983 F508.00 
G01 X8.6892 Y16.5036 
G01 X8.6861 Y16.4983 
G00 Z2.5400 
G00 X10.0608 Y16.3921 
G01 Z-0.1778 F254.00 
G01 X10.0967 Y16.3561 F508.00 
G01 X10.1020 Y16.3470 
G01 X10.1073 Y16.3561 
G01 X10.1759 Y16.4247 
G01 X10.2598 Y16.4732 
G01 X10.3142 Y16.4878 
G01 X10.3142 Y20.8175 
G01 X10.3406 Y20.9500 
G01 X10.3923 Y21.0748 
G01 X10.4299 Y21.1312 
G01 X10.0608 Y21.1312 
G01 X10.0608 Y16.3921 
G00 Z2.5400 
G00 X7.7557 Y2.5109 
G01 Z-0.1778 F254.00 
G01 X7.6905 Y2.6238 F508.00 
G01 X7.6567 Y2.7498 
G01 X7.6567 Y3.5688 
G01 X7.1187 Y4.1069 
G01 X7.0297 Y4.2400 
G01 X6.9684 Y4.3879 
G01 X6.9372 Y4.5449 
G01 X6.9372 Y8.3508 
G01 X6.8629 Y8.3937 
G01 X6.7707 Y8.4859 
G01 X6.7055 Y8.5988 
G01 X6.6818 Y8.6872 
G01 X6.6699 Y8.6872 
G01 X6.5129 Y8.7184 
G01 X6.3650 Y8.7797 
G01 X6.2319 Y8.8687 
G01 X4.9937 Y10.1069 
G01 X4.9047 Y10.2400 
G01 X4.8434 Y10.3879 
G01 X4.8122 Y10.5449 
G01 X4.8122 Y23.0801 
G01 X4.8434 Y23.2371 
G01 X4.9047 Y23.3850 
G01 X4.9937 Y23.5181 
G01 X5.7437 Y24.2681 
G01 X5.8569 Y24.3813 
G01 X5.9900 Y24.4703 
G01 X6.1379 Y24.5316 
G01 X6.2949 Y24.5628 
G01 X8.4551 Y24.5628 
G01 X8.6121 Y24.5316 
G01 X8.7600 Y24.4703 
G01 X8.8931 Y24.3813 
G01 X10.0797 Y23.1948 
G01 X10.4587 Y23.1948 
G01 X10.5847 Y23.1610 
G01 X10.6976 Y23.0958 
G01 X10.7898 Y23.0036 
G01 X10.8550 Y22.8907 
G01 X10.8888 Y22.7647 
G01 X10.8888 Y21.7883 
G01 X11.1982 Y22.0977 
G01 X11.1982 Y22.7647 
G01 X11.2320 Y22.8907 
G01 X11.2972 Y23.0036 
G01 X11.3894 Y23.0958 
G01 X11.5023 Y23.1610 
G01 X11.6283 Y23.1948 
G01 X12.9587 Y23.1948 
G01 X13.0847 Y23.1610 
G01 X13.1976 Y23.0958 
G01 X13.2898 Y23.0036 
G01 X13.3550 Y22.8907 
G01 X13.3888 Y22.7647 
G01 X13.3888 Y21.4343 
G01 X13.3550 Y21.3083 
G01 X13.2898 Y21.1954 
G01 X13.1976 Y21.1032 
G01 X13.0847 Y21.0380 
G01 X12.9587 Y21.0042 
G01 X12.4037 Y21.0042 
G01 X11.8128 Y20.4133 
G01 X11.8128 Y16.5197 
G01 X11.8983 Y16.4341 
G01 X11.9635 Y16.3212 
G01 X11.9973 Y16.1952 
G01 X11.9973 Y15.6522 
G01 X14.5063 Y13.1431 
G01 X14.5953 Y13.0100 
G01 X14.6566 Y12.8621 
G01 X14.6878 Y12.7051 
G01 X14.6878 Y9.9199 
G01 X14.6566 Y9.7629 
G01 X14.5953 Y9.6150 
G01 X14.5063 Y9.4819 
G01 X14.3931 Y9.3687 
G01 X13.8931 Y8.8687 
G01 X13.7600 Y8.7797 
G01 X13.6121 Y8.7184 
G01 X13.4551 Y8.6872 
G01 X13.3972 Y8.6872 
G01 X13.3735 Y8.5988 
G01 X13.3083 Y8.4859 
G01 X13.2161 Y8.3937 
G01 X13.1878 Y8.3773 
G01 X13.1878 Y4.9199 
G01 X13.1566 Y4.7629 
G01 X13.0953 Y4.6150 
G01 X13.0063 Y4.4819 
G01 X12.0473 Y3.5228 
G01 X12.0473 Y2.7498 
G01 X12.0135 Y2.6238 
G01 X11.9483 Y2.5109 
G01 X11.8561 Y2.4187 
G01 X11.7432 Y2.3535 
G01 X11.6172 Y2.3197 
G01 X10.2868 Y2.3197 
G01 X10.1608 Y2.3535 
G01 X10.0479 Y2.4187 
G01 X9.9557 Y2.5109 
G01 X9.8905 Y2.6238 
G01 X9.8567 Y2.7498 
G01 X9.8567 Y4.2019 
G01 X9.8473 Y4.2019 
G01 X9.8473 Y2.7498 
G01 X9.8135 Y2.6238 
G01 X9.7483 Y2.5109 
G01 X9.6561 Y2.4187 
G01 X9.5432 Y2.3535 
G01 X9.4172 Y2.3197 
G01 X8.0868 Y2.3197 
G01 X7.9608 Y2.3535 
G01 X7.8479 Y2.4187 
G01 X7.7557 Y2.5109 
G00 Z2.5400 
G00 X10.1878 Y20.8330 
G01 Z-0.1778 F254.00 
G01 X10.2184 Y20.9871 F508.00 
G01 X10.2255 Y21.0042 
G01 X10.1878 Y21.0042 
G01 X10.1878 Y20.8330 
G00 Z2.5400 
G00 X7.6686 Y2.4183 
G01 Z-0.1778 F254.00 
G01 X7.6005 Y2.5202 F508.00 
G01 X7.5536 Y2.6335 
G01 X7.5297 Y2.7537 
G01 X7.5297 Y3.5162 
G01 X7.0200 Y4.0259 
G01 X6.9172 Y4.1798 
G01 X6.8463 Y4.3509 
G01 X6.8102 Y4.5324 
G01 X6.8102 Y8.2800 
G01 X6.7703 Y8.3066 
G01 X6.6836 Y8.3933 
G01 X6.6155 Y8.4952 
G01 X6.5824 Y8.5751 
G01 X6.4759 Y8.5963 
G01 X6.3048 Y8.6672 
G01 X6.1509 Y8.7700 
G01 X4.8950 Y10.0259 
G01 X4.7922 Y10.1798 
G01 X4.7213 Y10.3509 
G01 X4.6852 Y10.5324 
G01 X4.6852 Y23.0926 
G01 X4.7213 Y23.2741 
G01 X4.7922 Y23.4452 
G01 X4.8950 Y23.5991 
G01 X5.6450 Y24.3491 
G01 X5.7759 Y24.4800 
G01 X5.9298 Y24.5828 
G01 X6.1009 Y24.6537 
G01 X6.2824 Y24.6898 
G01 X8.4676 Y24.6898 
G01 X8.6491 Y24.6537 
G01 X8.8202 Y24.5828 
G01 X8.9741 Y24.4800 
G01 X10.1323 Y23.3218 
G01 X10.4548 Y23.3218 
G01 X10.5750 Y23.2979 
G01 X10.6883 Y23.2510 
G01 X10.7902 Y23.1829 
G01 X10.8769 Y23.0962 
G01 X10.9450 Y22.9943 
G01 X10.9919 Y22.8810 
G01 X11.0158 Y22.7608 
G01 X11.0158 Y22.0949 
G01 X11.0712 Y22.1503 
G01 X11.0712 Y22.7608 
G01 X11.0951 Y22.8810 
G01 X11.1420 Y22.9943 
G01 X11.2101 Y23.0962 
G01 X11.2968 Y23.1829 
G01 X11.3987 Y23.2510 
G01 X11.5120 Y23.2979 
G01 X11.6322 Y23.3218 
G01 X12.9548 Y23.3218 
G01 X13.0750 Y23.2979 
G01 X13.1883 Y23.2510 
G01 X13.2902 Y23.1829 
G01 X13.3769 Y23.0962 
G01 X13.4450 Y22.9943 
G01 X13.4919 Y22.8810 
G01 X13.5158 Y22.7608 
G01 X13.5158 Y21.4382 
G01 X13.4919 Y21.3180 
G01 X13.4450 Y21.2047 
G01 X13.3769 Y21.1028 
G01 X13.2902 Y21.0161 
G01 X13.1883 Y20.9480 
G01 X13.0750 Y20.9011 
G01 X12.9548 Y20.8772 
G01 X12.4563 Y20.8772 
G01 X11.9398 Y20.3607 
G01 X11.9398 Y16.5723 
G01 X11.9854 Y16.5267 
G01 X12.0535 Y16.4248 
G01 X12.1004 Y16.3115 
G01 X12.1243 Y16.1913 
G01 X12.1243 Y15.7048 
G01 X14.6050 Y13.2241 
G01 X14.7078 Y13.0702 
G01 X14.7787 Y12.8991 
G01 X14.8148 Y12.7176 
G01 X14.8148 Y9.9074 
G01 X14.7787 Y9.7259 
G01 X14.7078 Y9.5548 
G01 X14.6050 Y9.4009 
G01 X14.4741 Y9.2700 
G01 X13.9741 Y8.7700 
G01 X13.8202 Y8.6672 
G01 X13.6491 Y8.5963 
G01 X13.4924 Y8.5651 
G01 X13.4635 Y8.4952 
G01 X13.3954 Y8.3933 
G01 X13.3148 Y8.3127 
G01 X13.3148 Y4.9074 
G01 X13.2787 Y4.7259 
G01 X13.2078 Y4.5548 
G01 X13.1050 Y4.4009 
G01 X12.1743 Y3.4702 
G01 X12.1743 Y2.7537 
G01 X12.1504 Y2.6335 
G01 X12.1035 Y2.5202 
G01 X12.0354 Y2.4183 
G01 X11.9487 Y2.3316 
G01 X11.8468 Y2.2635 
G01 X11.7335 Y2.2166 
G01 X11.6133 Y2.1927 
G01 X10.2907 Y2.1927 
G01 X10.1705 Y2.2166 
G01 X10.0572 Y2.2635 
G01 X9.9553 Y2.3316 
G01 X9.8686 Y2.4183 
G01 X9.8520 Y2.4432 
G01 X9.8354 Y2.4183 
G01 X9.7487 Y2.3316 
G01 X9.6468 Y2.2635 
G01 X9.5335 Y2.2166 
G01 X9.4133 Y2.1927 
G01 X8.0907 Y2.1927 
G01 X7.9705 Y2.2166 
G01 X7.8572 Y2.2635 
G01 X7.7553 Y2.3316 
G01 X7.6686 Y2.4183 
G00 Z2.5400 
G82 X12.2935 Y22.0995 Z-0.2794 F508.00 R2.5400 P1.000000
G82 X9.7935 Y22.0995 
G82 X7.2935 Y22.0995 
G00 Z12.7000 
M05
M02
